X: 79
T:Loliña (continuación)
M:6/8
L:1/8
K:CMin
|: CDE| {F}EDC GAG | FED {E}DEF | !
{G}FED FGF | EDC {D}CDE | {F}EDC EDC  | !
F3 AGF | EDC B,CD | C3 :||

